X:255
T: Father Stewart's
C: BB
R: jig
Q: 1/8=320
M: 6/8
L: 1/8
K: Dmix
^c | "D"dAA "Am"cAA | "C"cde "D"f2 g | "Am7"agf "C"efe | "D"ded "Am7"cAG |
"D"dAA "Am"cAA | "C"cde "D"fga | "G"ged "C"cAG | "A"A3 "A"A2 :|
e|"D"faa "C"gfe | "D"dAB "Am7"c2 g | "D"agf "C"efe | "D"ded "Am"cde |
"D"faa "C"gfe | "D"dAB "Am"cde |1 "G"ged "Am7"cAG |"A"A3 A2 :|2 "G"gdB "Am7"AGE |\
"D"D3-D2||
%%%%%%%%%%%%%%%%%%%%%%%%%%%%%%%%%%%%%%%%%%%
